www/assets/icons/wb_iridescent.svg

<svg width="24" height="24" viewBox="0 0 24 24" xmlns="http://www.w3.org/2000/svg" fill='currentColor'><path d="M4.99504 14.9998H18.995V8.9998H4.99504V14.9998ZM10.995 1.0498V3.9998H12.995V1.0498H10.995ZM19.035 3.5498L17.245 5.3398L18.655 6.7498L20.455 4.9598L19.035 3.5498ZM12.995 22.9498V19.9998H10.995V22.9498H12.995ZM20.445 19.0398L18.645 17.2498L17.235 18.6598L19.025 20.4598L20.445 19.0398ZM3.54504 4.9598L5.33504 6.7498L6.74504 5.3398L4.95504 3.5498L3.54504 4.9598ZM4.95504 20.4498L6.74504 18.6498L5.33504 17.2398L3.54504 19.0298L4.95504 20.4498Z"/></svg>

<svg xmlns="http://www.w3.org/2000/svg" width="24" height="24" viewBox="0 0 24 24" fill='currentColor'><path d="M4.995 15h14V9h-14zm6-13.95V4h2V1.05zm8.04 2.5-1.79 1.79 1.41 1.41 1.8-1.79zm-6.04 19.4V20h-2v2.95zm7.45-3.91-1.8-1.79-1.41 1.41 1.79 1.8zM3.545 4.96l1.79 1.79 1.41-1.41-1.79-1.79zm1.41 15.49 1.79-1.8-1.41-1.41-1.79 1.79z"/></svg>
